public/images/demo/EasyPose-demo.svg

<svg width="800" height="800" fill="none" xmlns="http://www.w3.org/2000/svg"><path d="M493.412 526.429c21.458 39.633 21.053 55.571 45.579 88.257 24.527 32.691 55.717 30.916 62.257 63.606 6.541 32.687-35.684 63.887-155.061 59.799-119.368-4.084-173.843-19.205-204.809-7.868-30.97 11.339-24.53 35.859-46.604 28.196-22.078-7.662-19.009-49.648-9.814-60.987 9.199-11.343 24.837-15.326 42.928-10.725 18.087 4.597 53.554 1.531 69.904-.918 16.351-2.451 103.836-8.454 134.908-42.636 0 0-163.118-44.807-157.395-52.166 5.731-7.354 36.798-52.711 41.496-64.559l99.135-24.519 77.476 24.52Z" fill="#fff" stroke="#000" stroke-width="5" stroke-miterlimit="10"/><path d="M493.412 526.429c21.458 39.633 21.053 55.571 45.579 88.257 24.527 32.691 55.717 30.916 62.257 63.606 6.541 32.687-35.684 63.887-155.061 59.799-119.368-4.084-173.843-19.205-204.809-7.868-30.97 11.339-24.53 35.859-46.604 28.196-22.078-7.662-19.009-49.648-9.814-60.987 9.199-11.343 24.837-15.326 42.928-10.725 18.087 4.597 53.554 1.531 69.904-.918 16.351-2.451 103.836-8.454 134.908-42.636 0 0-163.118-44.807-157.395-52.166 5.731-7.354 36.798-52.711 41.496-64.559l99.135-24.519 77.476 24.52Z" stroke="#000" stroke-width="5" stroke-miterlimit="10"/><path d="M271.099 688.507c-33.706-19.266-102.975-55.754-81.373-109.593 20.186-50.305 84.876-6.132 165.023 13.799 81.303 20.219 120.724 25.141 168.857 19.931 48.141-5.21 72.208-13.887 82.019-3.162 9.812 10.724 8.776 53.955-7.88 60.843-16.646 6.884-27.686-22.538-57.117-25.293-29.432-2.762-101.773 2.953-131.275 14.926-54.603 22.151-138.254 28.549-138.254 28.549Z" fill="#fff" stroke="#000" stroke-width="5" stroke-miterlimit="10"/><path d="M271.099 688.507c-33.706-19.266-102.975-55.754-81.373-109.593 20.186-50.305 84.876-6.132 165.023 13.799 81.303 20.219 120.724 25.141 168.857 19.931 48.141-5.21 72.208-13.887 82.019-3.162 9.812 10.724 8.776 53.955-7.88 60.843-16.646 6.884-27.686-22.538-57.117-25.293-29.432-2.762-101.773 2.953-131.275 14.926-54.603 22.151-138.254 28.549-138.254 28.549Z" stroke="#000" stroke-width="5" stroke-miterlimit="10"/><path d="M493.412 645.42s16.358-14.542 0-30.897Z" fill="#fff"/><path d="M493.412 645.42s16.358-14.542 0-30.897" stroke="#000" stroke-width="5" stroke-miterlimit="10"/><path d="M493.412 645.42s16.358-14.542 0-30.897M244.649 647.173c23.915 15.531 101.995 27.399 146.454 19.316" stroke="#000" stroke-width="5" stroke-miterlimit="10"/><path d="M242.961 504.133c-5.712-8.008-6.311-18.619-1.436-27.165 19.889-34.881 67.665-106.31 79.866-118.66 14.35-14.53 33.359-52.532 33.359-52.532l-25.959-27.378c-16.759 5.315-45.376 11.444-63.775 61.29-17.265 46.8-50.743 94.313-72.707 127.004-3.877 5.77-6.038 12.541-5.879 19.495.436 19.331 12.092 57.165 84.387 96.08 0 0 7.973 11.954 19.932 23.906 11.96 11.955 51.801 40.602 43.841 8.35-7.962-32.256-55.8-60.15-55.8-60.15l-35.829-50.24Z" fill="#fff" stroke="#000" stroke-width="5" stroke-miterlimit="10"/><path d="M242.961 504.133c-5.712-8.008-6.311-18.619-1.436-27.165 19.889-34.881 67.665-106.31 79.866-118.66 14.35-14.53 33.359-52.532 33.359-52.532l-25.959-27.378c-16.759 5.315-45.376 11.444-63.775 61.29-17.265 46.8-50.743 94.313-72.707 127.004-3.877 5.77-6.038 12.541-5.879 19.495.436 19.331 12.092 57.165 84.387 96.08 0 0 7.973 11.954 19.932 23.906 11.96 11.955 51.801 40.602 43.841 8.35-7.962-32.256-55.8-60.15-55.8-60.15l-35.829-50.24Z" stroke="#000" stroke-width="5" stroke-miterlimit="10"/><path d="M565.457 504.133c5.714-8.008 6.314-18.619 1.44-27.165-19.885-34.881-67.661-106.31-79.861-118.66-14.35-14.53-33.365-52.532-33.365-52.532l25.959-27.378c16.765 5.315 45.378 11.444 63.776 61.29 17.27 46.8 50.751 94.313 72.708 127.004 3.877 5.77 6.034 12.541 5.878 19.495-.436 19.331-12.084 57.165-84.386 96.08 0 0-7.973 11.954-19.933 23.906-11.96 11.955-51.801 40.602-43.836 8.35 7.958-32.256 55.795-60.15 55.795-60.15l35.825-50.24Z" fill="#fff" stroke="#000" stroke-width="5" stroke-miterlimit="10"/><path d="M565.457 504.133c5.714-8.008 6.314-18.619 1.44-27.165-19.885-34.881-67.661-106.31-79.861-118.66-14.35-14.53-33.365-52.532-33.365-52.532l25.959-27.378c16.765 5.315 45.378 11.444 63.776 61.29 17.27 46.8 50.751 94.313 72.708 127.004 3.877 5.77 6.034 12.541 5.878 19.495-.436 19.331-12.084 57.165-84.386 96.08 0 0-7.973 11.954-19.933 23.906-11.96 11.955-51.801 40.602-43.836 8.35 7.958-32.256 55.795-60.15 55.795-60.15l35.825-50.24Z" stroke="#000" stroke-width="5" stroke-miterlimit="10"/><path d="M488.748 358.308c-14.716-42.905-7.397-79.91-7.397-79.91s-16.966-4.494-36.589-19.818c-19.619-15.321-14.723-67.019-14.723-67.019s-1.019.21-24.931.21c-23.918 0-25.179-.21-25.179-.21s5.142 51.699-14.481 67.019c-19.621 15.322-36.579 19.818-36.579 19.818s7.309 37.005-7.411 79.91c0 0 13.739 90.892-4.656 168.121 0 0 38.632 15.324 88.306 15.324 49.667 0 88.302-15.324 88.302-15.324-18.397-77.229-4.662-168.121-4.662-168.121Z" fill="#fff" stroke="#000" stroke-width="5" stroke-miterlimit="10"/><path d="M488.748 358.308c-14.716-42.905-7.397-79.91-7.397-79.91s-16.966-4.494-36.589-19.818c-19.619-15.321-14.723-67.019-14.723-67.019s-1.019.21-24.931.21c-23.918 0-25.179-.21-25.179-.21s5.142 51.699-14.481 67.019c-19.621 15.322-36.579 19.818-36.579 19.818s7.309 37.005-7.411 79.91c0 0 13.739 90.892-4.656 168.121 0 0 38.632 15.324 88.306 15.324 49.667 0 88.302-15.324 88.302-15.324-18.397-77.229-4.662-168.121-4.662-168.121Z" stroke="#000" stroke-width="5" stroke-miterlimit="10"/><path d="M361.442 84.673c-28.76 59.598 16.644 131.177 42.771 131.524 26.123.342 73.401-70.019 46.219-130.352-17.137-38.03-70.856-38.742-88.99-1.172Z" fill="#fff" stroke="#000" stroke-width="5" stroke-miterlimit="10"/><path d="M361.442 84.673c-28.76 59.598 16.644 131.177 42.771 131.524 26.123.342 73.401-70.019 46.219-130.352-17.137-38.03-70.856-38.742-88.99-1.172Z" stroke="#000" stroke-width="5" stroke-miterlimit="10"/><path d="M573.672 156.431c-22.931-12.592-17.113-28.733-37.467-44.873-20.346-16.141-45.557-5.238-56.2-31.316-10.552-25.838-44.912-40.597-74.849-40.236h-.094c-29.944-.361-64.308 14.398-74.854 40.236-10.644 26.078-35.848 15.175-56.2 31.316-20.346 16.14-14.537 32.281-37.467 44.873-22.93 12.592-24.803 11.429-23.903 21.312 1.323 14.573 53.475 8.814 92.588 9.81 7.666.194 35.588 7.954 43.054 9.701 15.273 3.576 34.894 3.07 35.298-2.402.651-8.72-2.148-29.456-8.101-40.071-5.948-10.615-18.239-7.187-18.239-22.76 0-14.526 5.969-8.872 19.692-21.79 12.103-11.39 24.218-24.585 28.18-35.298 3.963 10.713 16.07 23.908 28.17 35.298 13.727 12.919 19.699 7.265 19.699 21.79 0 15.573-12.296 12.144-18.244 22.76-5.949 10.615-8.744 31.352-8.098 40.071.404 5.471 20.025 5.977 35.295 2.402 7.467-1.747 35.389-9.507 43.059-9.701 39.109-.996 91.26 4.763 92.584-9.81.895-9.883-.965-8.72-23.903-21.312Z" fill="#100200" stroke="#000" stroke-width="5" stroke-miterlimit="10"/><path d="M348.404 270.218s21.295 32.04 57.007 32.04c35.707 0 57.003-32.04 57.003-32.04" stroke="#000" stroke-width="5" stroke-miterlimit="10"/><path d="M285.028 688.507s-16.611 22.837 0 37.966Z" fill="#fff"/><path d="M285.028 688.507s-16.611 22.837 0 37.966" stroke="#000" stroke-width="5" stroke-miterlimit="10"/><path d="M285.028 688.507s-16.611 22.837 0 37.966" stroke="#000" stroke-width="5" stroke-miterlimit="10"/></svg>

<svg width="800" height="800" viewBox="0 0 800 800" fill="none" xmlns="http://www.w3.org/2000/svg">
<path d="M493.412 526.429C514.87 566.062 514.465 582 538.991 614.686C563.518 647.377 594.708 645.602 601.248 678.292C607.789 710.979 565.564 742.179 446.187 738.091C326.819 734.007 272.344 718.886 241.378 730.223C210.408 741.562 216.848 766.082 194.774 758.419C172.696 750.757 175.765 708.771 184.96 697.432C194.159 686.089 209.797 682.106 227.888 686.707C245.975 691.304 281.442 688.238 297.792 685.789C314.143 683.338 401.628 677.335 432.7 643.153C432.7 643.153 269.582 598.346 275.305 590.987C281.036 583.633 312.103 538.276 316.801 526.428L415.936 501.909L493.412 526.429Z" fill="white" stroke="black" stroke-width="5" stroke-miterlimit="10"/>
<path d="M493.412 526.429C514.87 566.062 514.465 582 538.991 614.686C563.518 647.377 594.708 645.602 601.248 678.292C607.789 710.979 565.564 742.179 446.187 738.091C326.819 734.007 272.344 718.886 241.378 730.223C210.408 741.562 216.848 766.082 194.774 758.419C172.696 750.757 175.765 708.771 184.96 697.432C194.159 686.089 209.797 682.106 227.888 686.707C245.975 691.304 281.442 688.238 297.792 685.789C314.143 683.338 401.628 677.335 432.7 643.153C432.7 643.153 269.582 598.346 275.305 590.987C281.036 583.633 312.103 538.276 316.801 526.428L415.936 501.909L493.412 526.429Z" stroke="black" stroke-width="5" stroke-miterlimit="10"/>
<path d="M271.099 688.507C237.393 669.241 168.124 632.753 189.726 578.914C209.912 528.609 274.602 572.782 354.749 592.713C436.052 612.932 475.473 617.854 523.606 612.644C571.747 607.434 595.814 598.757 605.625 609.482C615.437 620.206 614.401 663.437 597.745 670.325C581.099 677.209 570.059 647.787 540.628 645.032C511.196 642.27 438.855 647.985 409.353 659.958C354.75 682.109 271.099 688.507 271.099 688.507Z" fill="white" stroke="black" stroke-width="5" stroke-miterlimit="10"/>
<path d="M271.099 688.507C237.393 669.241 168.124 632.753 189.726 578.914C209.912 528.609 274.602 572.782 354.749 592.713C436.052 612.932 475.473 617.854 523.606 612.644C571.747 607.434 595.814 598.757 605.625 609.482C615.437 620.206 614.401 663.437 597.745 670.325C581.099 677.209 570.059 647.787 540.628 645.032C511.196 642.27 438.855 647.985 409.353 659.958C354.75 682.109 271.099 688.507 271.099 688.507Z" stroke="black" stroke-width="5" stroke-miterlimit="10"/>
<path d="M493.412 645.42C493.412 645.42 509.77 630.878 493.412 614.523Z" fill="white"/>
<path d="M493.412 645.42C493.412 645.42 509.77 630.878 493.412 614.523" stroke="black" stroke-width="5" stroke-miterlimit="10"/>
<path d="M493.412 645.42C493.412 645.42 509.77 630.878 493.412 614.523" stroke="black" stroke-width="5" stroke-miterlimit="10"/>
<path d="M244.649 647.173C268.564 662.704 346.644 674.572 391.103 666.489" stroke="black" stroke-width="5" stroke-miterlimit="10"/>
<path d="M242.961 504.133C237.249 496.125 236.65 485.514 241.525 476.968C261.414 442.087 309.19 370.658 321.391 358.308C335.741 343.778 354.75 305.776 354.75 305.776L328.791 278.398C312.032 283.713 283.415 289.842 265.016 339.688C247.751 386.488 214.273 434.001 192.309 466.692C188.432 472.462 186.271 479.233 186.43 486.187C186.866 505.518 198.522 543.352 270.817 582.267C270.817 582.267 278.79 594.221 290.749 606.173C302.709 618.128 342.55 646.775 334.59 614.523C326.628 582.267 278.79 554.373 278.79 554.373L242.961 504.133Z" fill="white" stroke="black" stroke-width="5" stroke-miterlimit="10"/>
<path d="M242.961 504.133C237.249 496.125 236.65 485.514 241.525 476.968C261.414 442.087 309.19 370.658 321.391 358.308C335.741 343.778 354.75 305.776 354.75 305.776L328.791 278.398C312.032 283.713 283.415 289.842 265.016 339.688C247.751 386.488 214.273 434.001 192.309 466.692C188.432 472.462 186.271 479.233 186.43 486.187C186.866 505.518 198.522 543.352 270.817 582.267C270.817 582.267 278.79 594.221 290.749 606.173C302.709 618.128 342.55 646.775 334.59 614.523C326.628 582.267 278.79 554.373 278.79 554.373L242.961 504.133Z" stroke="black" stroke-width="5" stroke-miterlimit="10"/>
<path d="M565.457 504.133C571.171 496.125 571.771 485.514 566.897 476.968C547.012 442.087 499.236 370.658 487.036 358.308C472.686 343.778 453.671 305.776 453.671 305.776L479.63 278.398C496.395 283.713 525.008 289.842 543.406 339.688C560.676 386.488 594.157 434.001 616.114 466.692C619.991 472.462 622.148 479.233 621.992 486.187C621.556 505.518 609.908 543.352 537.606 582.267C537.606 582.267 529.633 594.221 517.673 606.173C505.713 618.128 465.872 646.775 473.837 614.523C481.795 582.267 529.632 554.373 529.632 554.373L565.457 504.133Z" fill="white" stroke="black" stroke-width="5" stroke-miterlimit="10"/>
<path d="M565.457 504.133C571.171 496.125 571.771 485.514 566.897 476.968C547.012 442.087 499.236 370.658 487.036 358.308C472.686 343.778 453.671 305.776 453.671 305.776L479.63 278.398C496.395 283.713 525.008 289.842 543.406 339.688C560.676 386.488 594.157 434.001 616.114 466.692C619.991 472.462 622.148 479.233 621.992 486.187C621.556 505.518 609.908 543.352 537.606 582.267C537.606 582.267 529.633 594.221 517.673 606.173C505.713 618.128 465.872 646.775 473.837 614.523C481.795 582.267 529.632 554.373 529.632 554.373L565.457 504.133Z" stroke="black" stroke-width="5" stroke-miterlimit="10"/>
<path d="M488.748 358.308C474.032 315.403 481.351 278.398 481.351 278.398C481.351 278.398 464.385 273.904 444.762 258.58C425.143 243.259 430.039 191.561 430.039 191.561C430.039 191.561 429.02 191.771 405.108 191.771C381.19 191.771 379.929 191.561 379.929 191.561C379.929 191.561 385.071 243.26 365.448 258.58C345.827 273.902 328.869 278.398 328.869 278.398C328.869 278.398 336.178 315.403 321.458 358.308C321.458 358.308 335.197 449.2 316.802 526.429C316.802 526.429 355.434 541.753 405.108 541.753C454.775 541.753 493.41 526.429 493.41 526.429C475.013 449.2 488.748 358.308 488.748 358.308Z" fill="white" stroke="black" stroke-width="5" stroke-miterlimit="10"/>
<path d="M488.748 358.308C474.032 315.403 481.351 278.398 481.351 278.398C481.351 278.398 464.385 273.904 444.762 258.58C425.143 243.259 430.039 191.561 430.039 191.561C430.039 191.561 429.02 191.771 405.108 191.771C381.19 191.771 379.929 191.561 379.929 191.561C379.929 191.561 385.071 243.26 365.448 258.58C345.827 273.902 328.869 278.398 328.869 278.398C328.869 278.398 336.178 315.403 321.458 358.308C321.458 358.308 335.197 449.2 316.802 526.429C316.802 526.429 355.434 541.753 405.108 541.753C454.775 541.753 493.41 526.429 493.41 526.429C475.013 449.2 488.748 358.308 488.748 358.308Z" stroke="black" stroke-width="5" stroke-miterlimit="10"/>
<path d="M361.442 84.673C332.682 144.271 378.086 215.85 404.213 216.197C430.336 216.539 477.614 146.178 450.432 85.8449C433.295 47.815 379.576 47.1035 361.442 84.673Z" fill="white" stroke="black" stroke-width="5" stroke-miterlimit="10"/>
<path d="M361.442 84.673C332.682 144.271 378.086 215.85 404.213 216.197C430.336 216.539 477.614 146.178 450.432 85.8449C433.295 47.815 379.576 47.1035 361.442 84.673Z" stroke="black" stroke-width="5" stroke-miterlimit="10"/>
<path d="M573.672 156.431C550.741 143.839 556.559 127.698 536.205 111.558C515.859 95.4169 490.648 106.32 480.005 80.2418C469.453 54.4045 435.093 39.6446 405.156 40.0065H405.109H405.062C375.118 39.6446 340.754 54.4036 330.208 80.2418C319.564 106.32 294.36 95.4169 274.008 111.558C253.662 127.698 259.471 143.839 236.541 156.431C213.611 169.023 211.738 167.86 212.638 177.743C213.961 192.316 266.113 186.557 305.226 187.553C312.892 187.747 340.814 195.507 348.28 197.254C363.553 200.83 383.174 200.324 383.578 194.852C384.229 186.132 381.43 165.396 375.477 154.781C369.529 144.166 357.238 147.594 357.238 132.021C357.238 117.495 363.207 123.149 376.93 110.231C389.033 98.8412 401.148 85.6462 405.11 74.9333C409.073 85.6462 421.18 98.8412 433.28 110.231C447.007 123.15 452.979 117.496 452.979 132.021C452.979 147.594 440.683 144.165 434.735 154.781C428.786 165.396 425.991 186.133 426.637 194.852C427.041 200.323 446.662 200.829 461.932 197.254C469.399 195.507 497.321 187.747 504.991 187.553C544.1 186.557 596.251 192.316 597.575 177.743C598.47 167.86 596.61 169.023 573.672 156.431Z" fill="#100200" stroke="black" stroke-width="5" stroke-miterlimit="10"/>
<path d="M348.404 270.218C348.404 270.218 369.699 302.258 405.411 302.258C441.118 302.258 462.414 270.218 462.414 270.218" stroke="black" stroke-width="5" stroke-miterlimit="10"/>
<path d="M285.028 688.507C285.028 688.507 268.417 711.344 285.028 726.473Z" fill="white"/>
<path d="M285.028 688.507C285.028 688.507 268.417 711.344 285.028 726.473" stroke="black" stroke-width="5" stroke-miterlimit="10"/>
<path d="M285.028 688.507C285.028 688.507 268.417 711.344 285.028 726.473" stroke="black" stroke-width="5" stroke-miterlimit="10"/>
</svg>
